public/flags/CD.svg

<svg fill="none" height="53" viewBox="0 0 61 53" width="61" xmlns="http://www.w3.org/2000/svg" xmlns:xlink="http://www.w3.org/1999/xlink"><mask id="a" height="43" maskUnits="userSpaceOnUse" width="59" x="1" y="3"><rect fill="#fff" height="42.5" rx="4.24286" width="59" x="1" y="3"/></mask><rect fill="#fff" height="42.5" rx="4.24286" width="59" x="1" y="3"/><g mask="url(#a)"><rect fill="#158aff" height="42.5" rx="4.24286" width="59" x="1" y="3"/><path clip-rule="evenodd" d="m69.1855 14.0597-72.59578 37.3028-7.65302-15.1471 72.5959-37.30285z" fill="#fdd216" fill-rule="evenodd"/><path d="m0 0h81.619v11.3138h-81.619z" fill="#ce1120" transform="matrix(-.889448 .457037 -.450954 -.892547 68.6851 11.0193)"/><path clip-rule="evenodd" d="m10.8334 15.6792-4.12851 2.968 1.52327-4.8769-4.07482-3.0425 5.06993-.046 1.61013-4.84846 1.6101 4.84846 5.0699.046-4.0748 3.0425 1.5233 4.8769z" fill="#fdd216" fill-rule="evenodd"/></g></svg>

<svg width="61" height="53" viewBox="0 0 61 53" fill="none" xmlns="http://www.w3.org/2000/svg">
<rect x="1" y="3" width="59" height="42.5" rx="4.24286" fill="white"/>
<mask id="mask0" mask-type="alpha" maskUnits="userSpaceOnUse" x="1" y="3" width="59" height="43">
<rect x="1" y="3" width="59" height="42.5" rx="4.24286" fill="white"/>
</mask>
<g mask="url(#mask0)">
<rect x="1" y="3" width="59" height="42.5" rx="4.24286" fill="#158AFF"/>
<path fill-rule="evenodd" clip-rule="evenodd" d="M69.1855 14.0597L-3.41028 51.3625L-11.0633 36.2154L61.5326 -1.08745L69.1855 14.0597Z" fill="#FDD216"/>
<rect width="81.619" height="11.3138" transform="matrix(-0.889448 0.457037 -0.450954 -0.892547 68.6851 11.0193)" fill="#CE1120"/>
<path fill-rule="evenodd" clip-rule="evenodd" d="M10.8334 15.6792L6.70489 18.6472L8.22816 13.7703L4.15334 10.7278L9.22327 10.6818L10.8334 5.83334L12.4435 10.6818L17.5134 10.7278L13.4386 13.7703L14.9619 18.6472L10.8334 15.6792Z" fill="#FDD216"/>
</g>
</svg>
